TuxGuitar/src-skins/Symbolic/TuxGuitar/sidebar-show-symbolic_piano.svg

<?xml version="1.0" encoding="UTF-8" standalone="no"?>
<svg
   height="16px"
   viewBox="0 0 16 16"
   width="16px"
   version="1.1"
   id="svg10"
   sodipodi:docname="sidebar-show-symbolic_piano.svg"
   inkscape:version="1.2.2 (b0a8486541, 2022-12-01)"
   xmlns:inkscape="http://www.inkscape.org/namespaces/inkscape"
   xmlns:sodipodi="http://sodipodi.sourceforge.net/DTD/sodipodi-0.dtd"
   xmlns="http://www.w3.org/2000/svg"
   xmlns:svg="http://www.w3.org/2000/svg">
  <defs
     id="defs14" />
  <sodipodi:namedview
     id="namedview12"
     pagecolor="#ffffff"
     bordercolor="#666666"
     borderopacity="1.0"
     inkscape:showpageshadow="2"
     inkscape:pageopacity="0.0"
     inkscape:pagecheckerboard="0"
     inkscape:deskcolor="#d1d1d1"
     showgrid="false"
     inkscape:zoom="37.1673"
     inkscape:cx="5.3003581"
     inkscape:cy="7.7218415"
     inkscape:window-width="1920"
     inkscape:window-height="1021"
     inkscape:window-x="0"
     inkscape:window-y="0"
     inkscape:window-maximized="1"
     inkscape:current-layer="svg10" />
  <g
     fill="#2e3436"
     id="g8">
    <path
       d="m 3 1 c -1.644531 0 -3 1.355469 -3 3 v 8 c 0 1.644531 1.355469 3 3 3 h 10 c 1.644531 0 3 -1.355469 3 -3 v -8 c 0 -1.644531 -1.355469 -3 -3 -3 z m 0 2 h 10 c 0.570312 0 1 0.429688 1 1 v 8 c 0 0.570312 -0.429688 1 -1 1 h -10 c -0.570312 0 -1 -0.429688 -1 -1 v -8 c 0 -0.570312 0.429688 -1 1 -1 z m 0 0"
       id="path4" />
    <path
       d="M 5,1.9819965 H 6 V 14.022344 H 5 Z m -1,0 H 5 V 10 H 4 Z m 2,0 H 7 V 10 H 6 Z m 3,0 h 1 V 10 H 9 Z m 1,0 h 1 V 14.009043 h -1 z m 1,0 h 1 V 10 h -1 z"
       id="path6"
       sodipodi:nodetypes="cccccccccccccccccccccccccccccc" />
  </g>
</svg>

<?xml version="1.0" encoding="UTF-8"?>
<svg id="svg10" width="16px" height="16px" version="1.1" viewBox="0 0 16 16" xmlns="http://www.w3.org/2000/svg">
 <g id="g8" fill="#2e3436">
  <path id="path4" d="m3 1c-1.6445 0-3 1.3555-3 3v8c0 1.6445 1.3555 3 3 3h10c1.6445 0 3-1.3555 3-3v-8c0-1.6445-1.3555-3-3-3zm0 2h10c0.57031 0 1 0.42969 1 1v8c0 0.57031-0.42969 1-1 1h-10c-0.57031 0-1-0.42969-1-1v-8c0-0.57031 0.42969-1 1-1z"/>
  <path id="path6" d="m5 1.982h1v12.04h-1zm-1 0h1v8.018h-1zm2 0h1v8.018h-1zm3 0h1v8.018h-1zm1 0h1v12.027h-1zm1 0h1v8.018h-1z"/>
 </g>
</svg>
